src/assets/filled/Mask2.svg

<svg width="24" height="24" viewBox="0 0 24 24"  xmlns="http://www.w3.org/2000/svg">
<path d="M18.65 4.58979C16.89 2.98979 14.56 2.02979 12 2.02979C6.50003 2.02979 2.03003 6.49979 2.03003 11.9998C2.03003 17.4998 6.50003 21.9698 12 21.9698C14.56 21.9698 16.89 21.0098 18.65 19.4098C20.69 17.5998 21.97 14.9398 21.97 11.9998C21.97 9.05979 20.69 6.39979 18.65 4.58979ZM11.97 16.3898C11.95 18.0398 10.72 18.4398 9.57003 17.9798C7.20003 17.0298 5.53003 14.7098 5.53003 11.9998C5.53003 9.28979 7.20003 6.96979 9.57003 6.00979C10.72 5.54979 11.95 5.95978 11.97 7.59978V16.3898Z" />
</svg>

<?xml version="1.0" encoding="UTF-8"?>
<svg width="24" height="24" viewBox="0 0 24 24" xmlns="http://www.w3.org/2000/svg">
 <path d="m18.65 4.5898c-1.76-1.6-4.09-2.56-6.65-2.56-5.5 0-9.97 4.47-9.97 9.97 0 5.5 4.47 9.97 9.97 9.97 2.56 0 4.89-0.96 6.65-2.56 2.04-1.81 3.32-4.47 3.32-7.41 0-2.94-1.28-5.6-3.32-7.41zm-6.68 11.8c-0.02 1.65-1.25 2.05-2.4 1.59-2.37-0.95-4.04-3.27-4.04-5.98 0-2.71 1.67-5.03 4.04-5.99 1.15-0.46 2.38-0.05001 2.4 1.59v8.79z"/>
</svg>
